src/assets/icons/letters,simple,sans-q.svg

<svg width="48" height="48" viewBox="0 0 48 48" fill="none" xmlns="http://www.w3.org/2000/svg">
<rect opacity="0.2" x="5" y="5" width="38" height="38" rx="4" fill="black"/>
<path d="M34.553 24.7273C34.553 17.3516 29.9735 13.1463 23.9959 13.1463C17.9852 13.1463 13.4387 17.3516 13.4387 24.7273C13.4387 32.07 17.9852 36.3082 23.9959 36.3082C25.405 36.3082 26.737 36.0771 27.9479 35.6147L29.7643 37.8494H34.2118L30.9863 33.7983C33.188 31.8278 34.553 28.7454 34.553 24.7273ZM22.3446 28.1619L25.2288 31.9709C24.8435 32.0479 24.4252 32.092 23.9959 32.092C20.5282 32.092 18.2714 29.505 18.2714 24.7273C18.2714 19.9496 20.5282 17.3626 23.9959 17.3626C27.4525 17.3626 29.7203 19.9496 29.7203 24.7273C29.7203 27.1822 29.1148 29.0646 28.069 30.3086L26.3957 28.1619H22.3446Z" fill="black"/>
</svg>

<svg xmlns="http://www.w3.org/2000/svg" width="48" height="48" fill="none" viewBox="0 0 48 48">
  <rect width="38" height="38" x="5" y="5" fill="#000" opacity=".2" rx="4"/>
  <path fill="#000" d="M34.553 24.727c0-7.375-4.58-11.58-10.557-11.58-6.01 0-10.557 4.205-10.557 11.58 0 7.343 4.546 11.581 10.557 11.581 1.409 0 2.741-.23 3.952-.693l1.816 2.234h4.448l-3.226-4.05c2.202-1.971 3.567-5.054 3.567-9.072zm-12.208 3.435l2.884 3.809a6.333 6.333 0 01-1.233.121c-3.468 0-5.725-2.587-5.725-7.365 0-4.777 2.257-7.364 5.725-7.364 3.457 0 5.724 2.587 5.724 7.364 0 2.455-.605 4.338-1.651 5.582l-1.673-2.147h-4.051z"/>
</svg>
